X:939
T:Fagail Braigh Bhalla
C:Joe Buchanan's Scottish Tome - Page 548.2
I:548 2
Z:Carl Allison
R:Waltz
L:1/4
M:3/4
K:G
D | G G G | B2 c | d2 e | d B G | D D D | F2 G | A2 B | A F D |
G G G | B2 c | d2 e | d B G | D F A | c B A | G3 | G2 B |
d d D | G2 B | d2 e | d B G | A A F | D2 F | A2 B | c B A |
G D G | B2 c | d2 e | d B G | D F A | c B A | G3 | G2 |]

